static/logos/lever-wordmark-color.svg

<svg width="100" height="29" viewBox="0 0 100 29" fill="none" xmlns="http://www.w3.org/2000/svg">
<g clip-path="url(#clip0_1_2189)">
<path d="M28.1335 26.9077L22.7867 21.56C22.6178 21.3945 22.3908 21.3018 22.1543 21.3018C21.9178 21.3018 21.6908 21.3945 21.5219 21.56L16.1752 26.9077C16.0477 27.0292 15.9602 27.1867 15.9243 27.3593C15.8885 27.5318 15.9061 27.711 15.9748 27.8734C16.0433 28.0356 16.1597 28.1732 16.3084 28.2677C16.4571 28.3622 16.6311 28.4092 16.8071 28.4023H27.5015C27.6765 28.4067 27.8488 28.3583 27.9959 28.2634C28.1431 28.1685 28.2583 28.0315 28.3264 27.8702C28.3946 27.7089 28.4127 27.5309 28.3783 27.3592C28.3438 27.1876 28.2585 27.0302 28.1335 26.9077Z" fill="#C3C6CC"/>
<path d="M28.3126 7.70055L26.6378 2.72838C26.5622 2.50352 26.4417 2.29637 26.2836 2.11951L0.203125 28.1991C0.35618 28.3361 0.556108 28.4088 0.761407 28.4023H8.16912C8.37616 28.4033 8.58131 28.3635 8.77296 28.2851C8.96456 28.2066 9.13876 28.0911 9.28569 27.9452L27.9576 9.27334C28.1605 9.07233 28.3017 8.81742 28.3646 8.53878C28.4275 8.26014 28.4095 7.96931 28.3126 7.70055Z" fill="#E1E3E6"/>
<path d="M25.6744 1.76334L20.7022 0.0893786C20.4335 -0.00751321 20.1426 -0.025574 19.864 0.0373274C19.5853 0.100229 19.3304 0.24147 19.1294 0.444408L0.456616 19.1162C0.162881 19.4135 -0.00115619 19.8149 0.000403113 20.2329V27.6405C-0.00611721 27.8458 0.0666695 28.0458 0.203656 28.1988L26.2842 2.11929C26.107 1.96066 25.8996 1.83957 25.6744 1.76334Z" fill="#C3C6CC"/>
<path d="M96.9903 13.8008C97.0068 14.0896 96.9382 14.3769 96.7932 14.6271C96.6654 14.8218 96.4849 14.9758 96.2725 15.0709C96.0388 15.1734 95.7891 15.2332 95.5346 15.2475C95.2583 15.2679 94.9832 15.278 94.708 15.2777H93.7441V12.3443H94.8068C95.063 12.3444 95.3187 12.3574 95.5737 12.3833C95.8187 12.4049 96.0583 12.4682 96.282 12.5706C96.4903 12.6673 96.6672 12.8205 96.7932 13.0126C96.9352 13.2502 97.0039 13.5244 96.9903 13.8008ZM97.3441 21.3017H100L98.5441 19.1555C98.295 18.788 98.0429 18.4339 97.7873 18.0931C97.5311 17.7514 97.3175 17.4691 97.1476 17.2463C97.0246 17.0466 96.8642 16.8726 96.6755 16.7342C97.3938 16.6756 98.0648 16.3489 98.5542 15.8191C99.0577 15.2552 99.3222 14.5173 99.2914 13.7617C99.3015 13.3098 99.2074 12.8618 99.0163 12.4521C98.8252 12.0424 98.5423 11.6821 98.1903 11.399C97.824 11.1115 97.3962 10.9125 96.9406 10.8176C96.3488 10.6968 95.7453 10.6409 95.1417 10.6508H91.5607V21.3017H93.7441V16.8718C93.9589 16.8623 94.1713 16.9173 94.3542 17.0298C94.5133 17.136 94.6589 17.2615 94.7873 17.4034C94.9802 17.6402 95.1607 17.8866 95.3281 18.1419C95.5447 18.4632 95.8624 18.9454 96.282 19.5886L97.3441 21.3017ZM78.8453 21.3017H85.6914V19.4511H81.069V16.6162H84.5305V14.8641H81.0488V12.4028H85.2192L85.5335 10.6508H78.8453V21.3017ZM70.2577 21.3008L74.4074 10.6508H72.1062L70.0015 16.183C69.9003 16.4341 69.8116 16.6904 69.7364 16.9508C69.6512 17.2392 69.5761 17.5114 69.5104 17.7673C69.4447 18.0238 69.392 18.2372 69.3524 18.4073L69.2938 18.6638L69.2145 18.4073C69.1755 18.2236 69.1234 18.004 69.0577 17.7487C68.992 17.4922 68.9163 17.2197 68.8311 16.9312C68.7459 16.6419 68.6642 16.386 68.5855 16.1635L66.6376 10.6508H64.1991L68.2707 21.3008H70.2577ZM52.9586 21.3017H59.8033V19.4511H55.1811V16.6162H58.6435V14.8641H55.1616V12.4028H59.3311L59.6465 10.6508H52.9586V21.3017ZM46.9648 21.3017L47.3784 19.4901H43.0506V10.6508H40.8281V21.3017H46.9648Z" fill="#262933"/>
</g>
<defs>
<clipPath id="clip0_1_2189">
<rect width="100" height="28.4024" fill="white"/>
</clipPath>
</defs>
</svg>

<svg xmlns="http://www.w3.org/2000/svg" width="220.69" height="64" fill="none" viewBox="0 0 100 29"><g clip-path="url(#a)"><path fill="#C3C6CC" d="m28.134 26.908-5.347-5.348a.904.904 0 0 0-1.265 0l-5.347 5.348a.868.868 0 0 0 .632 1.494h10.695a.872.872 0 0 0 .632-1.494Z"/><path fill="#E1E3E6" d="m28.313 7.7-1.675-4.972a1.75 1.75 0 0 0-.354-.608L.204 28.2a.8.8 0 0 0 .557.202H8.17a1.575 1.575 0 0 0 1.117-.457L27.958 9.273a1.498 1.498 0 0 0 .355-1.572Z"/><path fill="#C3C6CC" d="M25.674 1.763 20.702.09a1.498 1.498 0 0 0-1.573.355L.457 19.116A1.58 1.58 0 0 0 0 20.233v7.407a.799.799 0 0 0 .204.559l26.08-26.08a1.76 1.76 0 0 0-.61-.356Z"/><path fill="#262933" d="M96.99 13.8a1.48 1.48 0 0 1-.197.827 1.218 1.218 0 0 1-.52.444 2.135 2.135 0 0 1-.738.177c-.277.02-.552.03-.827.03h-.964v-2.934h1.063c.256 0 .512.013.767.04.245.02.484.084.708.187.208.096.385.25.511.442.142.237.21.511.197.788Zm.354 7.502H100l-1.456-2.146c-.249-.368-.501-.722-.757-1.063-.256-.342-.47-.624-.64-.847a1.817 1.817 0 0 0-.472-.512 2.877 2.877 0 0 0 1.88-.915 2.911 2.911 0 0 0 .736-2.057 2.942 2.942 0 0 0-1.1-2.363 3.023 3.023 0 0 0-1.25-.581 8.315 8.315 0 0 0-1.8-.167h-3.58V21.3h2.183v-4.43c.215-.009.427.046.61.159.16.106.305.232.433.373.193.237.374.484.541.739.217.321.534.803.954 1.447l1.062 1.713Zm-18.499 0h6.846v-1.85H81.07v-2.836h3.462v-1.752h-3.482v-2.461h4.17l.315-1.752h-6.689V21.3Zm-8.587-.001 4.15-10.65h-2.302l-2.105 5.532a7.97 7.97 0 0 0-.265.768c-.085.288-.16.56-.226.816-.065.257-.118.47-.158.64l-.058.257-.08-.257a16.156 16.156 0 0 0-.156-.658 23.396 23.396 0 0 0-.227-.818c-.085-.29-.167-.545-.246-.768l-1.947-5.512h-2.439l4.072 10.65h1.987Zm-17.3 0h6.845v-1.85h-4.622v-2.835h3.463v-1.752h-3.482v-2.461h4.17l.315-1.752h-6.688V21.3Zm-5.993 0 .413-1.81h-4.327v-8.84h-2.223V21.3h6.137Z"/></g><defs><clipPath id="a"><path fill="#fff" d="M0 0h100v28.402H0z"/></clipPath></defs></svg>
